svgs/duotone/square-ampersand.svg

<svg xmlns="http://www.w3.org/2000/svg" viewBox="0 0 448 512"><!--! Font Awesome Pro 6.3.0 by @fontawesome - https://fontawesome.com License - https://fontawesome.com/license (Commercial License) Copyright 2023 Fonticons, Inc. --><defs><style>.fa-secondary{opacity:.4}</style></defs><path class="fa-primary" d="M299.5 315.3l28.15-41.31c7.469-10.95 4.625-25.89-6.312-33.34c-10.97-7.484-25.88-4.609-33.38 6.312l-21.76 31.93l-29.74-32.53l19.69-15.89c13.59-11 21.41-27.36 21.41-44.86C277.6 153.9 251.7 128 219.9 128H196.8C165 128 139.1 153.9 139.1 185.7c0 16.36 6.062 32.03 17.12 44.14l10.34 11.33L136.8 265.2C121.1 277.9 112 296.9 112 317.2C112 354 141.1 384 178.8 384h32.47c23.41 0 45.38-10.41 60.16-28.19l18.62 20.38C294.8 381.4 301.3 384 307.8 384c5.781 0 11.59-2.078 16.19-6.281c9.781-8.953 10.47-24.12 1.531-33.91L299.5 315.3zM196.8 176h23.12c5.312 0 9.656 4.328 9.656 9.656c0 2.938-1.312 5.688-3.594 7.516L204 210.9L191.7 197.4C188.8 194.2 187.1 190 187.1 185.7C187.1 180.3 191.5 176 196.8 176zM236.3 322.8C230.7 331.1 221.3 336 211.3 336H178.8C168.5 336 160 327.5 160 317.2c0-5.719 2.531-11.06 7-14.64L199.1 276.6l39.37 43.08L236.3 322.8z"/><path class="fa-secondary" d="M167 302.5C162.5 306.1 160 311.4 160 317.2C160 327.5 168.5 336 178.8 336h32.47c10.03 0 19.38-4.938 25-13.2l2.117-3.105L199.1 276.6L167 302.5zM204 210.9l21.94-17.73c2.281-1.828 3.594-4.578 3.594-7.516C229.6 180.3 225.2 176 219.9 176H196.8c-5.312 0-9.656 4.328-9.656 9.656c0 4.359 1.625 8.547 4.562 11.78L204 210.9zM384 32H64C28.65 32 0 60.65 0 96v320c0 35.35 28.65 64 64 64h320c35.35 0 64-28.65 64-64V96C448 60.65 419.3 32 384 32zM324 377.7C319.4 381.9 313.6 384 307.8 384c-6.5 0-12.97-2.625-17.72-7.812l-18.62-20.38C256.7 373.6 234.7 384 211.3 384H178.8C141.1 384 112 354 112 317.2c0-20.3 9.062-39.25 24.84-51.98l29.75-24.05L156.3 229.8c-11.06-12.11-17.12-27.78-17.12-44.14C139.1 153.9 165 128 196.8 128h23.12c31.78 0 57.66 25.86 57.66 57.66c0 17.5-7.812 33.86-21.41 44.86l-19.69 15.89l29.74 32.53L287.1 247c7.5-10.92 22.41-13.8 33.38-6.312c10.94 7.453 13.78 22.39 6.312 33.34L299.5 315.3l26.03 28.47C334.5 353.6 333.8 368.8 324 377.7z"/></svg>

<svg xmlns="http://www.w3.org/2000/svg" viewBox="0 0 448 512"><!-- Font Awesome Pro 6.0.0-alpha2 by @fontawesome - https://fontawesome.com License - https://fontawesome.com/license (Commercial License) --><defs><style>.fa-secondary{opacity:.4}</style></defs><path d="M167 302.516C162.531 306.094 160 311.438 160 317.156C160 327.547 168.469 336 178.844 336H211.312C221.344 336 230.688 331.062 236.312 322.797L238.43 319.691L199.062 276.609L167 302.516ZM204.031 210.906L225.969 193.172C228.25 191.344 229.563 188.594 229.563 185.656C229.562 180.328 225.219 176 219.906 176H196.781C191.469 176 187.125 180.328 187.125 185.656C187.125 190.016 188.75 194.203 191.688 197.438L204.031 210.906ZM384 32H64C28.654 32 0 60.654 0 96V416C0 451.346 28.654 480 64 480H384C419.346 480 448 451.346 448 416V96C448 60.654 419.346 32 384 32ZM324 377.719C319.406 381.922 313.594 384 307.812 384C301.312 384 294.844 381.375 290.094 376.188L271.469 355.812C256.688 373.594 234.719 384 211.312 384H178.844C142 384 112 354.016 112 317.156C112 296.859 121.062 277.906 136.844 265.172L166.594 241.125L156.25 229.797C145.188 217.687 139.125 202.016 139.125 185.656C139.125 153.859 165 128 196.781 128H219.906C251.688 128 277.562 153.859 277.562 185.656C277.562 203.156 269.75 219.516 256.156 230.516L236.469 246.406L266.207 278.932L287.969 247C295.469 236.078 310.375 233.203 321.344 240.688C332.281 248.141 335.125 263.078 327.656 274.031L299.502 315.344L325.531 343.812C334.469 353.594 333.781 368.766 324 377.719Z" class="fa-secondary"/><path d="M299.502 315.344L327.656 274.031C335.125 263.078 332.281 248.141 321.344 240.688C310.375 233.203 295.469 236.078 287.969 247L266.207 278.932L236.469 246.406L256.156 230.516C269.75 219.516 277.562 203.156 277.562 185.656C277.562 153.859 251.688 128 219.906 128H196.781C165 128 139.125 153.859 139.125 185.656C139.125 202.016 145.187 217.688 156.25 229.797L166.594 241.125L136.844 265.172C121.062 277.906 112 296.859 112 317.156C112 354.016 142 384 178.844 384H211.312C234.719 384 256.688 373.594 271.469 355.812L290.094 376.188C294.844 381.375 301.312 384 307.812 384C313.594 384 319.406 381.922 324 377.719C333.781 368.766 334.469 353.594 325.531 343.812L299.502 315.344ZM196.781 176H219.906C225.219 176 229.562 180.328 229.562 185.656C229.562 188.594 228.25 191.344 225.969 193.172L204.031 210.906L191.688 197.438C188.75 194.203 187.125 190.016 187.125 185.656C187.125 180.328 191.469 176 196.781 176ZM236.312 322.797C230.688 331.062 221.344 336 211.312 336H178.844C168.469 336 160 327.547 160 317.156C160 311.438 162.531 306.094 167 302.516L199.062 276.609L238.43 319.691L236.312 322.797Z" class="fa-primary"/></svg>
